X:3067
T:Husmannspolka
C:anon.
O:Norway
N:Alf Pr\oysen's words are still copyright protected
R:Polka
F:http://abc.musicaviva.com/tunes/norway/husmannspolka/husmannspolka-1.abc
M:2/4
L:1/16
K:F
"F"F2FA c2dc|"C7"E2EGc4|"C7"E2d2 d3E|"F"F2F2F4:|
"C7"G2GB E2EG|"F"F2FA c3A|"C7"G2GB E2EG|"F"F2FA c3c|
"Bb"d2Bd f2ed|"F"c2FA c4|"C7"E2d2 c3E|"F"F2F2F4||
"F"A2A2 A3G|"F"G2F2 F4|"F"C2F2 G3F|"C7"F2E2 E4|
"C7"B2B2 B3A|"C7"A2G2 c4|"C7"C3C D2E2|"F"F4 F4|]
W:
W:
W:  From Musica Viva - http://www.musicaviva.com
W:  the Internet center for free sheet music downloads.
